X: 162
T: A Prairie Fire
C: Teton Sioux band 1911-1914
N: Derived from sioux157.krn
O: South Dakota, U.S.A.
N: Teton Sioux Music by Frances Densmore, 1918
Z: transcribed to **kern format by Craig Sapp
L: 1/8
M: 3/4
Q: 1/4=58
K: D clef=bass
%%linebreak <none>
E> CE3C [I:setbarnb 1]||  
[M:2/4]E> C E3/ C/ | 
(3C B, B, A,3/ F,/ | 
B, B, D3/ B,/ | 
D2E D | 
B,< A, A,/ G,3/ | 
(3A, G, G, D,/ D, D,/ | 
D,< D,- D, E ||  
[M:3/4](3E C EE2C3/ E/ | 
(3E C E C/ C/ B,/ A,/ A,/ F,/ B,/ B,/ ||  
[M:2/4]D> B, D/> D/ E3// D// | 
D B,/ B,/ A, G, | 
(3A, G, G, D,/ D, D,/ | 
D,< D,z2 |]  



